!!!COM: Bach, Johann Sebastian
!!!OTL@@DE: 281. Wo soll ich fliehen hin
!!!OTL@EN: Whither am I to flee?
!!!SCA: BWV 89.6
**harm	**root	**kern	**kern	**kern	**kern
*staff2	*	*staff2	*staff2	*staff1	*staff1
*Iorgan	*Iorgan	*Iorgan	*Iorgan	*Iorgan	*Iorgan
!	!	!bass	!tenor	!alto	!sprno
*	*	*clefF4	*clefF4	*clefG2	*clefG2
*k[f#c#g#]	*k[f#c#g#]	*k[f#c#g#]	*k[f#c#g#]	*k[f#c#g#]	*k[f#c#g#]
*f#:	*f#:	*f#:	*f#:	*f#:	*f#:
*met(c)	*met(c)	*met(c)	*met(c)	*met(c)	*met(c)
*M4/4	*M4/4	*M4/4	*M4/4	*M4/4	*M4/4
*MM60	*MM60	*MM60	*MM60	*MM60	*MM60
i	4GG	4FF#	4A	4c#	4f#
=1	=1	=1	=1	=1	=1
i	4GG	4F#	4A	4c#	4f#
V	4DD	4E#	4G#	4c#	4g#
i	4GG	4F#	8F#L	4c#	4a
.	.	.	8AJ	.	.
ivb	4CC	4D	4d	4f#	4b
=2	=2	=2	=2	=2	=2
V;	2.DD;	2.C#;	2.G#;	2.e#;	2.cc#;
V7c	4DD	4BB	4G#	4e#	4cc#
=3	=3	=3	=3	=3	=3
ib	4GG	4AA	4A	4f#	4cc#
viiob	4FF#	4GG#	4B	8f#L	4b
.	.	.	.	8e#J	.
i	4GG	4FF#	4c#	4f#	4a
iiob	4AA	4BB	4d	4g#	4b
=4	=4	=4	=4	=4	=4
V;	2.DD;	2.C#;	2.c#;	2.e;	2.g##;
*A:	*A:	*A:	*A:	*A:	*A:
V/VI	4DD	4C#	4c#	4e	4g##
=5	=5	=5	=5	=5	=5
vi	4GG	4F#	4c#	4f#	4a
V	4FF	4E	4e	4g#	4b
I	4BB-	8AL	4e	4a	4cc#
.	.	8G#	.	.	.
vi	4GG	8F#	4f#	4a	4cc#
.	.	8EJ	.	.	.
=6	=6	=6	=6	=6	=6
iv7b	4EE-	4D	4f#	4a	2b
V	4FF	4E	4e	4g#	.
I;	4BB-;	4AA;	4e;	4a;	4cc#;
Vb/VI	4DD	4E#	4c#	4g#	4cc#
=7	=7	=7	=7	=7	=7
!!linebreak: 2
vi	4GG	(4F#	4c#	4f#	4a
V	4FF	8EL	4e	8g#L	4b
.	.	8DJ)	.	8f#J	.
Ib	4BB-	8C#L	4A	4e	4cc#
.	.	8BB	.	.	.
I	4BB-	8AA	4A	4e	4cc#
.	.	8C#J	.	.	.
=8	=8	=8	=8	=8	=8
ii7	4CC	8DL	4A	4f#	2b
.	.	8BBJ	.	.	.
V	4FF	4E	4G#	4e	.
I;	4BB-;	4AA;	4c#;	4e;	4a;
I	4BB-	4A	4e	4a	4cc#
=9	=9	=9	=9	=9	=9
Vb	4FF	4G#	4e	4b	4ee
I	4BB-	4A	8eL	4a	4cc#
.	.	.	8f#J	.	.
Vb/VI	4DD	4E#	8g#L	4g#	4cc#
.	.	.	8G#J	.	.
vi	4GG	4F#	4A	4f#	4cc#
=10	=10	=10	=10	=10	=10
V7b/V	4CC	4D#	4A	4f#	2b
Vc	8FF	4BB	8G#L	8eL	.
V/V	8CC	.	8F#J	8d#J	.
V;	4FF;	4E;	4G#;	4e;	4b;
*f#:	*f#:	*f#:	*f#:	*f#:	*f#:
ivb	4CC	4D	4F#	4f#	4b
=11	=11	=11	=11	=11	=11
V	4DD	8C#L	4G#	4e#	4cc#
.	.	8BBJ	.	.	.
V7c	4DD	8AAL	4c#	4e#	4b
.	.	8GG#J	.	.	.
i	4GG	8FF#L	4c#	4f#	4a
.	.	8EJ	.	.	.
ivb	8CC	8DL	8BL	4f#	8bL
ic	8GG	8C#J	8c#J	.	8aJ
=12	=12	=12	=12	=12	=12
iio7	4AA	4BB	4d	4f#	2g#
V7	4DD	4C#	8c#L	4e#	.
.	.	.	8BJ	.	.
I;	4GG;	4FF#;	4A#;	4c#;	4f#;
==	==	==	==	==	==
*-	*-	*-	*-	*-	*-
!!!ENC: Craig Stuart Sapp
!!!END: 2004/12/06/
!!chor2scor: -l 2 -s 0.6 -o %b.pmx
